assets/icons/library/artists.svg

<?xml version="1.0" encoding="UTF-8" standalone="no"?>
<svg
   viewBox="0 0 24 24"
   height="24"
   id="svg7384"
   version="1.1"
   width="24"
   sodipodi:docname="artists.svg"
   inkscape:version="1.2.2 (1:1.2.2+202212051551+b0a8486541)"
   xmlns:inkscape="http://www.inkscape.org/namespaces/inkscape"
   xmlns:sodipodi="http://sodipodi.sourceforge.net/DTD/sodipodi-0.dtd"
   xmlns="http://www.w3.org/2000/svg"
   xmlns:svg="http://www.w3.org/2000/svg"
   xmlns:rdf="http://www.w3.org/1999/02/22-rdf-syntax-ns#"
   xmlns:cc="http://creativecommons.org/ns#"
   xmlns:dc="http://purl.org/dc/elements/1.1/">
  <sodipodi:namedview
     id="namedview24"
     pagecolor="#ffffff"
     bordercolor="#666666"
     borderopacity="1.0"
     inkscape:pageshadow="2"
     inkscape:pageopacity="0.0"
     inkscape:pagecheckerboard="0"
     showgrid="true"
     inkscape:zoom="21.979322"
     inkscape:cx="6.5061152"
     inkscape:cy="7.3478154"
     inkscape:window-width="1850"
     inkscape:window-height="1016"
     inkscape:window-x="0"
     inkscape:window-y="0"
     inkscape:window-maximized="1"
     inkscape:current-layer="svg7384"
     inkscape:showpageshadow="2"
     inkscape:deskcolor="#d1d1d1">
    <inkscape:grid
       type="xygrid"
       id="grid841" />
    <inkscape:grid
       type="xygrid"
       id="grid568"
       dotted="true"
       spacingx="0.5"
       spacingy="0.5"
       empspacing="10" />
  </sodipodi:namedview>
  <metadata
     id="metadata20854">
    <rdf:RDF>
      <cc:Work
         rdf:about="">
        <dc:format>image/svg+xml</dc:format>
        <dc:type
           rdf:resource="http://purl.org/dc/dcmitype/StillImage" />
      </cc:Work>
    </rdf:RDF>
  </metadata>
  <defs
     id="defs7386">
    <linearGradient
       id="linearGradient5606"
       inkscape:swatch="solid">
      <stop
         id="stop5608"
         offset="0"
         style="stop-color:#000000;stop-opacity:1;" />
    </linearGradient>
    <linearGradient
       id="linearGradient4526"
       inkscape:swatch="solid">
      <stop
         id="stop4528"
         offset="0"
         style="stop-color:#ffffff;stop-opacity:1;" />
    </linearGradient>
    <linearGradient
       id="linearGradient3600-4"
       inkscape:swatch="gradient">
      <stop
         id="stop3602-7"
         offset="0"
         style="stop-color:#f4f4f4;stop-opacity:1" />
      <stop
         id="stop3604-6"
         offset="1"
         style="stop-color:#dbdbdb;stop-opacity:1" />
    </linearGradient>
  </defs>
  <path
     id="path874"
     style="color:#000000;fill:#808080;fill-opacity:1;-inkscape-stroke:none"
     d="M 9 2 C 7.958338 2 7.0016931 2.11461 6.2421875 2.5703125 C 6.1472487 2.6272753 6.0565928 2.6907459 5.9707031 2.7597656 C 5.8848173 2.8287896 5.8045453 2.9037453 5.7285156 2.984375 C 5.6524878 3.0650018 5.5809947 3.1504178 5.515625 3.2421875 C 5.4502582 3.3339583 5.3898372 3.4307454 5.3359375 3.5332031 C 5.2820397 3.6356618 5.2349891 3.7447352 5.1933594 3.8574219 C 5.1517304 3.9701086 5.1164504 4.0865277 5.0878906 4.2089844 C 5.0593308 4.3314421 5.0361644 4.4600272 5.0214844 4.5917969 C 5.0068004 4.7235663 5 4.8593753 5 5 L 5 17 C 5 17.140625 5.0068004 17.276433 5.0214844 17.408203 C 5.0361644 17.539973 5.0593308 17.668558 5.0878906 17.791016 C 5.1164506 17.913473 5.1517306 18.029891 5.1933594 18.142578 C 5.2349892 18.255265 5.2820396 18.364338 5.3359375 18.466797 C 5.3898373 18.569255 5.4502583 18.666044 5.515625 18.757812 C 5.5809948 18.849582 5.6524879 18.934998 5.7285156 19.015625 C 5.8045454 19.096255 5.8848174 19.17121 5.9707031 19.240234 C 6.0565929 19.309254 6.1472488 19.372725 6.2421875 19.429688 C 7.0016931 19.885389 7.958338 20 9 20 L 12 20 L 18 20 C 19.041662 20 19.998307 19.885389 20.757812 19.429688 C 20.852751 19.372725 20.943407 19.309254 21.029297 19.240234 C 21.115182 19.17121 21.195454 19.096255 21.271484 19.015625 C 21.347512 18.934998 21.419005 18.849582 21.484375 18.757812 C 21.549742 18.666044 21.610164 18.569255 21.664062 18.466797 C 21.71796 18.364338 21.765011 18.255265 21.806641 18.142578 C 21.84827 18.029891 21.883549 17.913473 21.912109 17.791016 C 21.940669 17.668558 21.963836 17.539973 21.978516 17.408203 C 21.993196 17.276433 22 17.140625 22 17 L 22 5 C 22 4.8593753 21.993196 4.7235663 21.978516 4.5917969 C 21.963836 4.4600272 21.940669 4.3314421 21.912109 4.2089844 C 21.88355 4.0865277 21.848271 3.9701086 21.806641 3.8574219 C 21.765011 3.7447352 21.717962 3.6356618 21.664062 3.5332031 C 21.610164 3.4307454 21.549745 3.3339583 21.484375 3.2421875 C 21.419005 3.1504178 21.347514 3.0650018 21.271484 2.984375 C 21.195454 2.9037453 21.115187 2.8287896 21.029297 2.7597656 C 20.943407 2.6907459 20.852752 2.6272753 20.757812 2.5703125 C 19.998307 2.11461 19.041662 2 18 2 L 12 2 L 9 2 z M 9 3 L 12 3 L 18 3 C 18.958329 3 19.751698 3.1353934 20.242188 3.4296875 C 20.732676 3.7239806 21 4.1250037 21 5 L 21 17 C 21 17.874996 20.732676 18.276021 20.242188 18.570312 C 19.751698 18.864607 18.958329 19 18 19 L 12 19 L 9 19 C 8.041671 19 7.248302 18.864607 6.7578125 18.570312 C 6.267324 18.276021 6 17.874996 6 17 L 6 5 C 6 4.1250037 6.267324 3.7239806 6.7578125 3.4296875 C 7.248302 3.1353934 8.041671 3 9 3 z M 4 4.7402344 C 3.9907597 4.7474469 3.9798362 4.7524264 3.9707031 4.7597656 C 3.8848174 4.8287896 3.8045451 4.9037455 3.7285156 4.984375 C 3.6524879 5.0650017 3.5809945 5.150418 3.515625 5.2421875 C 3.4502583 5.3339582 3.389837 5.4307456 3.3359375 5.5332031 C 3.2820398 5.6356616 3.2349889 5.7447354 3.1933594 5.8574219 C 3.1517304 5.9701084 3.1164504 6.0865279 3.0878906 6.2089844 C 3.0593309 6.3314419 3.0361644 6.4600274 3.0214844 6.5917969 C 3.0068004 6.7235659 3 6.8593755 3 7 L 3 19 C 3 19.140625 3.0068004 19.276433 3.0214844 19.408203 C 3.0361644 19.539973 3.0593309 19.668558 3.0878906 19.791016 C 3.1164506 19.913473 3.1517306 20.029891 3.1933594 20.142578 C 3.2349891 20.255265 3.2820397 20.364338 3.3359375 20.466797 C 3.3898372 20.569255 3.4502585 20.666046 3.515625 20.757812 C 3.5809947 20.849582 3.6524881 20.934998 3.7285156 21.015625 C 3.8045453 21.096255 3.8848176 21.17121 3.9707031 21.240234 C 4.0565928 21.309254 4.147249 21.372725 4.2421875 21.429688 C 5.0016915 21.885387 5.95834 22 7 22 L 10 22 L 16 22 C 17.04166 22 17.998309 21.885387 18.757812 21.429688 C 18.852752 21.372728 18.943407 21.309254 19.029297 21.240234 C 19.115187 21.171214 19.195454 21.096255 19.271484 21.015625 C 19.276204 21.01062 19.280472 21.005042 19.285156 21 L 16 21 L 7 21 L 6 21 L 6 20.941406 C 5.4896631 20.875932 5.0647422 20.754471 4.7578125 20.570312 C 4.267325 20.276023 4 19.874994 4 19 L 4 13 L 4 7 L 4 4.7402344 z M 13.5 5 C 11.57293 5 10 6.5729295 10 8.5 C 10 10.42707 11.57293 12 13.5 12 C 15.42707 12 17 10.42707 17 8.5 C 17 6.5729295 15.42707 5 13.5 5 z M 13.5 6 C 14.886632 6 16 7.1133686 16 8.5 C 16 9.8866314 14.886632 11 13.5 11 C 12.113368 11 11 9.8866314 11 8.5 C 11 7.1133686 12.113368 6 13.5 6 z M 12.5 13 C 11.333038 13 10.241329 13.196009 9.3945312 13.75 C 8.547733 14.303991 8 15.257827 8 16.5 L 8 17 L 9 17 L 9 16.5 C 9 15.526179 9.34416 14.979897 9.9433594 14.587891 C 10.542558 14.195883 11.450968 14 12.5 14 L 14.5 14 C 15.549032 14 16.457441 14.195883 17.056641 14.587891 C 17.65584 14.979897 18 15.526179 18 16.5 L 18 17 L 19 17 L 19 16.5 C 19 15.257827 18.452267 14.303991 17.605469 13.75 C 16.758671 13.196009 15.666962 13 14.5 13 L 12.5 13 z " />
</svg>

<svg height="24" width="24" xmlns="http://www.w3.org/2000/svg"><path style="color:#000;fill:gray;fill-opacity:1;-inkscape-stroke:none" d="M9 2c-1.042 0-1.998.115-2.758.57a2.428 2.428 0 0 0-.906.963 2.933 2.933 0 0 0-.248.676A3.298 3.298 0 0 0 5 5v12a3.298 3.298 0 0 0 .193 1.143 2.54 2.54 0 0 0 .535.873 2.394 2.394 0 0 0 .514.414c.76.455 1.716.57 2.758.57h9c1.042 0 1.998-.115 2.758-.57a2.428 2.428 0 0 0 .906-.963 2.933 2.933 0 0 0 .248-.676A3.298 3.298 0 0 0 22 17V5a3.298 3.298 0 0 0-.193-1.143 2.539 2.539 0 0 0-.535-.873 2.393 2.393 0 0 0-.514-.414C19.998 2.115 19.042 2 18 2H9zm0 1h9c.958 0 1.752.135 2.242.43.49.294.758.695.758 1.57v12c0 .875-.267 1.276-.758 1.57-.49.295-1.284.43-2.242.43H9c-.958 0-1.752-.135-2.242-.43C6.268 18.276 6 17.875 6 17V5c0-.875.267-1.276.758-1.57C7.248 3.135 8.042 3 9 3zM4 4.74c-.01.007-.02.012-.03.02a2.394 2.394 0 0 0-.454.482 2.54 2.54 0 0 0-.323.615A3.298 3.298 0 0 0 3 7v12a3.298 3.298 0 0 0 .193 1.143 2.539 2.539 0 0 0 .535.873 2.394 2.394 0 0 0 .514.414c.76.455 1.716.57 2.758.57h9c1.042 0 1.998-.115 2.758-.57a2.427 2.427 0 0 0 .513-.414l.014-.016H6v-.059c-.51-.065-.935-.187-1.242-.37C4.268 20.275 4 19.874 4 19V4.74zm9.5.26A3.508 3.508 0 0 0 10 8.5c0 1.927 1.573 3.5 3.5 3.5S17 10.427 17 8.5 15.427 5 13.5 5zm0 1C14.887 6 16 7.113 16 8.5S14.887 11 13.5 11A2.492 2.492 0 0 1 11 8.5C11 7.113 12.113 6 13.5 6zm-1 7c-1.167 0-2.259.196-3.105.75C8.548 14.304 8 15.258 8 16.5v.5h1v-.5c0-.974.344-1.52.943-1.912.6-.392 1.508-.588 2.557-.588h2c1.049 0 1.957.196 2.557.588.599.392.943.938.943 1.912v.5h1v-.5c0-1.242-.548-2.196-1.395-2.75-.846-.554-1.938-.75-3.105-.75h-2z"/></svg>
